src/assets/icons/icons/svgmap/tvprogramm-ds.svg

<?xml version="1.0" encoding="UTF-8"?>
<svg width="320px" height="320px" viewBox="0 0 320 320" version="1.1" xmlns="http://www.w3.org/2000/svg" xmlns:xlink="http://www.w3.org/1999/xlink">
    <title>Kalendertv@1x</title>
    <g id="Kalendertv" stroke="none" stroke-width="1" fill="none" fill-rule="evenodd">
        <g id="kalender" transform="translate(36, 32)" fill="#000000">
            <rect id="Rectangle" x="36" y="0" width="22" height="44" rx="11"></rect>
            <rect id="Rectangle-Copy" x="190" y="0" width="22" height="44" rx="11"></rect>
            <path d="M171,30 L171,33 C171,49.5685425 184.431458,63 201,63 C217.568542,63 231,49.5685425 231,33 L231,30 L234,30 C241.731986,30 248,36.2680135 248,44 L248,242 C248,249.731986 241.731986,256 234,256 L14,256 C6.2680135,256 9.46895252e-16,249.731986 0,242 L0,44 C-9.46895252e-16,36.2680135 6.2680135,30 14,30 L17,30 L17,33 C17,49.5685425 30.4314575,63 47,63 C63.5685425,63 77,49.5685425 77,33 L77,30 L171,30 Z M4,80 L244,80 L244,238 C244,245.731986 237.731986,252 230,252 L18,252 C10.2680135,252 4,245.731986 4,238 L4,80 L4,80 Z" id="Combined-Shape" stroke="#000000" stroke-width="16"></path>
        </g>
        <g id="TV" transform="translate(78.4609, 156.4219)" fill="#000000" fill-rule="nonzero">
            <polygon id="Path" points="72.9667969 14.9501953 45.5273438 14.9501953 45.5273438 89.578125 27.0703125 89.578125 27.0703125 14.9501953 0 14.9501953 0 0 72.9667969 0"></polygon>
            <polygon id="Path" points="122.611289 67.3681641 142.914023 0 163.462852 0 132.270469 89.578125 113.013633 89.578125 81.9442969 0 102.431602 0"></polygon>
        </g>
    </g>
</svg>

<svg xmlns="http://www.w3.org/2000/svg" width="320" height="320" viewBox="0 0 320 320">
  <g fill-rule="evenodd">
    <g transform="translate(36 32)">
      <rect width="22" height="44" x="36" rx="11"/>
      <rect width="22" height="44" x="190" rx="11"/>
      <path stroke="#000" stroke-width="16" d="M171 30v3c0 16.5685 13.4315 30 30 30s30-13.4315 30-30v-3h3c7.732 0 14 6.268 14 14v198c0 7.732-6.268 14-14 14H14c-7.732 0-14-6.268-14-14V44c0-7.732 6.268-14 14-14h3v3c0 16.5685 13.4315 30 30 30s30-13.4315 30-30v-3h94ZM4 80h240v158c0 7.732-6.268 14-14 14H18c-7.732 0-14-6.268-14-14V80Z"/>
    </g>
    <path fill-rule="nonzero" d="M151.4277 171.3721h-27.4395V246h-18.457v-74.6279H78.4609v-14.9502h72.9668zm49.6445 52.418 20.3027-67.3682h20.5489L210.7314 246h-19.2569l-31.0693-89.5781h20.4873z"/>
  </g>
</svg>
